P3
80 80
255
0 0 0 0 0 0 0 0 0 0 0 0 0 0 0 0 0 0 0 0 0 0 0 0 
0 0 0 0 0 0 0 0 0 0 0 0 0 0 0 0 0 0 0 0 0 0 0 0 
0 0 0 0 0 0 0 0 0 0 0 0 0 0 0 0 0 0 0 0 0 0 0 0 
0 0 0 0 0 0 0 0 0 0 0 0 0 0 0 0 0 0 0 0 0 0 0 0 
0 0 0 0 0 0 0 0 0 0 0 0 0 0 0 0 0 0 0 0 0 0 0 0 
0 0 0 0 0 0 0 0 0 0 0 0 0 0 0 0 0 0 0 0 0 0 0 0 
0 0 0 0 0 0 0 0 0 0 0 0 0 0 0 0 0 0 0 0 0 0 0 0 
0 0 0 0 0 0 0 0 0 0 0 0 0 0 0 0 0 0 0 0 0 0 0 0 
0 0 0 0 0 0 0 0 0 0 0 0 0 0 0 0 0 0 0 0 0 0 0 0 
0 0 0 0 0 0 0 0 0 0 0 0 0 0 0 0 0 0 0 0 0 0 0 0 

0 0 0 0 0 0 0 0 0 0 0 0 0 0 0 0 0 0 0 0 0 0 0 0 
0 0 0 0 0 0 0 0 0 0 0 0 0 0 0 0 0 0 0 0 0 0 0 0 
0 0 0 0 0 0 0 0 0 0 0 0 0 0 0 0 0 0 0 0 0 0 0 0 
0 0 0 0 0 0 0 0 0 0 0 0 0 0 0 0 0 0 0 0 0 0 0 0 
0 0 0 0 0 0 0 0 0 0 0 0 0 0 0 0 0 0 0 0 0 0 0 0 
0 0 0 0 0 0 0 0 0 0 0 0 0 0 0 0 0 0 0 0 0 0 0 0 
0 0 0 0 0 0 0 0 0 0 0 0 0 0 0 0 0 0 0 0 0 0 0 0 
0 0 0 0 0 0 0 0 0 0 0 0 0 0 0 0 0 0 0 0 0 0 0 0 
0 0 0 0 0 0 0 0 0 0 0 0 0 0 0 0 0 0 0 0 0 0 0 0 
0 0 0 0 0 0 0 0 0 0 0 0 0 0 0 0 0 0 0 0 0 0 0 0 

0 0 0 0 0 0 0 0 0 0 0 0 0 0 0 0 0 0 0 0 0 0 0 0 
0 0 0 0 0 0 0 0 0 0 0 0 0 0 0 0 0 0 0 0 0 0 0 0 
0 0 0 0 0 0 0 0 0 0 0 0 0 0 0 0 0 0 0 0 0 0 0 0 
0 0 0 0 0 0 0 0 0 0 0 0 0 0 0 0 0 0 0 0 0 0 0 0 
0 0 0 0 0 0 0 0 0 0 0 0 0 0 0 0 0 0 0 0 0 0 0 0 
0 0 0 0 0 0 0 0 0 0 0 0 0 0 0 0 0 0 0 0 0 0 0 0 
0 0 0 0 0 0 0 0 0 0 0 0 0 0 0 0 0 0 0 0 0 0 0 0 
0 0 0 0 0 0 0 0 0 0 0 0 0 0 0 0 0 0 0 0 0 0 0 0 
0 0 0 0 0 0 0 0 0 0 0 0 0 0 0 0 0 0 0 0 0 0 0 0 
0 0 0 0 0 0 0 0 0 0 0 0 0 0 0 0 0 0 0 0 0 0 0 0 

0 0 0 0 0 0 0 0 0 0 0 0 0 0 0 0 0 0 0 0 0 0 0 0 
0 0 0 0 0 0 0 0 0 0 0 0 0 0 0 0 0 0 0 0 0 0 0 0 
0 0 0 0 0 0 0 0 0 0 0 0 0 0 0 0 0 0 0 0 0 0 0 0 
0 0 0 0 0 0 0 0 0 0 0 0 0 0 0 0 0 0 0 0 0 0 0 0 
0 0 0 0 0 0 0 0 0 0 0 0 0 0 0 0 0 0 0 0 0 0 0 0 
0 0 0 0 0 0 0 0 0 0 0 0 0 0 0 0 0 0 0 0 0 0 0 0 
0 0 0 0 0 0 0 0 0 0 0 0 0 0 0 0 0 0 0 0 0 0 0 0 
0 0 0 0 0 0 0 0 0 0 0 0 0 0 0 0 0 0 0 0 0 0 0 0 
0 0 0 0 0 0 0 0 0 0 0 0 0 0 0 0 0 0 0 0 0 0 0 0 
0 0 0 0 0 0 0 0 0 0 0 0 0 0 0 0 0 0 0 0 0 0 0 0 

0 0 0 0 0 0 0 0 0 0 0 0 0 0 0 0 0 0 0 0 0 0 0 0 
0 0 0 0 0 0 0 0 0 0 0 0 0 0 0 0 0 0 0 0 0 0 0 0 
0 0 0 0 0 0 0 0 0 0 0 0 0 0 0 0 0 0 0 0 0 0 0 0 
0 0 0 0 0 0 0 0 0 0 0 0 0 0 0 0 0 0 0 0 0 0 0 0 
0 0 0 0 0 0 0 0 0 0 0 0 0 0 0 0 0 0 0 0 0 0 0 0 
0 0 0 0 0 0 0 0 0 0 0 0 0 0 0 0 0 0 0 0 0 0 0 0 
0 0 0 0 0 0 0 0 0 0 0 0 0 0 0 0 0 0 0 0 0 0 0 0 
0 0 0 0 0 0 0 0 0 0 0 0 0 0 0 0 0 0 0 0 0 0 0 0 
0 0 0 0 0 0 0 0 0 0 0 0 0 0 0 0 0 0 0 0 0 0 0 0 
0 0 0 0 0 0 0 0 0 0 0 0 0 0 0 0 0 0 0 0 0 0 0 0 

0 0 0 0 0 0 0 0 0 0 0 0 0 0 0 0 0 0 0 0 0 0 0 0 
0 0 0 0 0 0 0 0 0 0 0 0 0 0 0 0 0 0 0 0 0 0 0 0 
0 0 0 0 0 0 0 0 0 0 0 0 0 0 0 0 0 0 0 0 0 0 0 0 
0 0 0 0 0 0 0 0 0 0 0 0 0 0 0 0 0 0 0 0 0 0 0 0 
0 0 0 0 0 0 0 0 0 0 0 0 0 0 0 0 0 0 0 0 0 0 0 0 
0 0 0 0 0 0 0 0 0 0 0 0 0 0 0 0 0 0 0 0 0 0 0 0 
0 0 0 0 0 0 0 0 0 0 0 0 0 0 0 0 0 0 0 0 0 0 0 0 
0 0 0 0 0 0 0 0 0 0 0 0 0 0 0 0 0 0 0 0 0 0 0 0 
0 0 0 0 0 0 0 0 0 0 0 0 0 0 0 0 0 0 0 0 0 0 0 0 
0 0 0 0 0 0 0 0 0 0 0 0 0 0 0 0 0 0 0 0 0 0 0 0 

0 0 0 0 0 0 0 0 0 0 0 0 0 0 0 0 0 0 0 0 0 0 0 0 
0 0 0 0 0 0 0 0 0 0 0 0 0 0 0 0 0 0 0 0 0 0 0 0 
0 0 0 0 0 0 0 0 0 0 0 0 0 0 0 0 0 0 0 0 0 0 0 0 
0 0 0 0 0 0 0 0 0 0 0 0 0 0 0 0 0 0 0 0 0 0 0 0 
0 0 0 0 0 0 0 0 0 0 0 0 0 0 0 0 0 0 0 0 0 0 0 0 
0 0 0 0 0 0 0 0 0 0 0 0 0 0 0 0 0 0 0 0 0 0 0 0 
0 0 0 0 0 0 0 0 0 0 0 0 0 0 0 0 0 0 0 0 0 0 0 0 
0 0 0 0 0 0 0 0 0 0 0 0 0 0 0 0 0 0 0 0 0 0 0 0 
0 0 0 0 0 0 0 0 0 0 0 0 0 0 0 0 0 0 0 0 0 0 0 0 
0 0 0 0 0 0 0 0 0 0 0 0 0 0 0 0 0 0 0 0 0 0 0 0 

0 0 0 0 0 0 0 0 0 0 0 0 0 0 0 0 0 0 0 0 0 0 0 0 
0 0 0 0 0 0 0 0 0 0 0 0 0 0 0 0 0 0 0 0 0 0 0 0 
0 0 0 0 0 0 0 0 0 0 0 0 0 0 0 0 0 0 0 0 0 0 0 0 
0 0 0 0 0 0 0 0 0 0 0 0 0 0 0 0 0 0 0 0 0 0 0 0 
0 0 0 0 0 0 0 0 0 0 0 0 0 0 0 0 0 0 0 0 0 0 0 0 
0 0 0 0 0 0 0 0 0 0 0 0 0 0 0 0 0 0 0 0 0 0 0 0 
0 0 0 0 0 0 0 0 0 0 0 0 0 0 0 0 0 0 0 0 0 0 0 0 
0 0 0 0 0 0 0 0 0 0 0 0 0 0 0 0 0 0 0 0 0 0 0 0 
0 0 0 0 0 0 0 0 0 0 0 0 0 0 0 0 0 0 0 0 0 0 0 0 
0 0 0 0 0 0 0 0 0 0 0 0 0 0 0 0 0 0 0 0 0 0 0 0 

0 0 0 0 0 0 0 0 0 0 0 0 0 0 0 0 0 0 0 0 0 0 0 0 
0 0 0 0 0 0 0 0 0 0 0 0 0 0 0 0 0 0 0 0 0 0 0 0 
0 0 0 0 0 0 0 0 0 0 0 0 0 0 0 0 0 0 0 0 0 0 0 0 
0 0 0 0 0 0 0 0 0 0 0 0 0 0 0 0 0 0 0 0 0 0 0 0 
0 0 0 0 0 0 0 0 0 0 0 0 0 0 0 0 0 0 0 0 0 0 0 0 
0 0 0 0 0 0 0 0 0 0 0 0 0 0 0 0 0 0 0 0 0 0 0 0 
0 0 0 0 0 0 0 0 0 0 0 0 0 0 0 0 0 0 0 0 0 0 0 0 
0 0 0 0 0 0 0 0 0 0 0 0 0 0 0 0 0 0 0 0 0 0 0 0 
0 0 0 0 0 0 0 0 0 0 0 0 0 0 0 0 0 0 0 0 0 0 0 0 
0 0 0 0 0 0 0 0 0 0 0 0 0 0 0 0 0 0 0 0 0 0 0 0 

0 0 0 0 0 0 0 0 0 0 0 0 0 0 0 0 0 0 0 0 0 0 0 0 
0 0 0 0 0 0 0 0 0 0 0 0 0 0 0 0 0 0 0 0 0 0 0 0 
0 0 0 0 0 0 0 0 0 0 0 0 0 0 0 0 0 0 0 0 0 0 0 0 
0 0 0 0 0 0 0 0 0 0 0 0 0 0 0 0 0 0 0 0 0 0 0 0 
0 0 0 0 0 0 0 0 0 0 0 0 0 0 0 0 0 0 0 0 0 0 0 0 
0 0 0 0 0 0 0 0 0 0 0 0 0 0 0 0 0 0 0 0 0 0 0 0 
0 0 0 0 0 0 0 0 0 0 0 0 0 0 0 0 0 0 0 0 0 0 0 0 
0 0 0 0 0 0 0 0 0 0 0 0 0 0 0 0 0 0 0 0 0 0 0 0 
0 0 0 0 0 0 0 0 0 0 0 0 0 0 0 0 0 0 0 0 0 0 0 0 
0 0 0 0 0 0 0 0 0 0 0 0 0 0 0 0 0 0 0 0 0 0 0 0 

0 0 0 0 0 0 0 0 0 0 0 0 0 0 0 0 0 0 0 0 0 0 0 0 
0 0 0 0 0 0 0 0 0 0 0 0 0 0 0 0 0 0 0 0 0 0 0 0 
0 0 0 0 0 0 0 0 0 0 0 0 0 0 0 0 0 0 0 0 0 0 0 0 
0 0 0 0 0 0 0 0 0 0 0 0 0 0 0 0 0 0 0 0 0 0 0 0 
0 0 0 0 0 0 0 0 0 0 0 0 0 0 0 0 0 0 0 0 0 0 0 0 
0 0 0 0 0 0 0 0 0 0 0 0 0 0 0 0 0 0 0 0 0 0 0 0 
0 0 0 0 0 0 0 0 0 0 0 0 0 0 0 0 0 0 0 0 0 0 0 0 
0 0 0 0 0 0 0 0 0 0 0 0 0 0 0 0 0 0 0 0 0 0 0 0 
0 0 0 0 0 0 0 0 0 0 0 0 0 0 0 0 0 0 0 0 0 0 0 0 
0 0 0 0 0 0 0 0 0 0 0 0 0 0 0 0 0 0 0 0 0 0 0 0 

0 0 0 0 0 0 0 0 0 0 0 0 0 0 0 0 0 0 0 0 0 0 0 0 
0 0 0 0 0 0 0 0 0 0 0 0 0 0 0 0 0 0 0 0 0 0 0 0 
0 0 0 0 0 0 0 0 0 0 0 0 0 0 0 0 0 0 0 0 0 0 0 0 
0 0 0 0 0 0 0 0 0 0 0 0 0 0 0 0 0 0 0 0 0 0 0 0 
0 0 0 0 0 0 0 0 0 0 0 0 0 0 0 0 0 0 0 0 0 0 0 0 
0 0 0 0 0 0 0 0 0 0 0 0 0 0 0 0 0 0 0 0 0 0 0 0 
0 0 0 0 0 0 0 0 0 0 0 0 0 0 0 0 0 0 0 0 0 0 0 0 
0 0 0 0 0 0 0 0 0 0 0 0 0 0 0 0 0 0 0 0 0 0 0 0 
0 0 0 0 0 0 0 0 0 0 0 0 0 0 0 0 0 0 0 0 0 0 0 0 
0 0 0 0 0 0 0 0 0 0 0 0 0 0 0 0 0 0 0 0 0 0 0 0 

0 0 0 0 0 0 0 0 0 0 0 0 0 0 0 0 0 0 0 0 0 0 0 0 
0 0 0 0 0 0 0 0 0 0 0 0 0 0 0 0 0 0 0 0 0 0 0 0 
0 0 0 0 0 0 0 0 0 0 0 0 0 0 0 0 0 0 0 0 0 0 0 0 
0 0 0 0 0 0 0 0 0 0 0 0 0 0 0 0 0 0 0 0 0 0 0 0 
0 0 0 0 0 0 0 0 0 0 0 0 0 0 0 0 0 0 0 0 0 0 0 0 
0 0 0 0 0 0 0 0 0 0 0 0 0 0 0 0 0 0 0 0 0 0 0 0 
0 0 0 0 0 0 0 0 0 0 0 0 0 0 0 0 0 0 0 0 0 0 0 0 
0 0 0 0 0 0 0 0 0 0 0 0 0 0 0 0 0 0 0 0 0 0 0 0 
0 0 0 0 0 0 0 0 0 0 0 0 0 0 0 0 0 0 0 0 0 0 0 0 
0 0 0 0 0 0 0 0 0 0 0 0 0 0 0 0 0 0 0 0 0 0 0 0 

0 0 0 0 0 0 0 0 0 0 0 0 0 0 0 0 0 0 0 0 0 0 0 0 
0 0 0 0 0 0 0 0 0 0 0 0 0 0 0 0 0 0 0 0 0 0 0 0 
0 0 0 0 0 0 0 0 0 0 0 0 0 0 0 0 0 0 0 0 0 0 0 0 
0 0 0 0 0 0 0 0 0 0 0 0 0 0 0 0 0 0 0 0 0 0 0 0 
0 0 0 0 0 0 0 0 0 0 0 0 0 0 0 0 0 0 0 0 0 0 0 0 
0 0 0 0 0 0 0 0 0 0 0 0 0 0 0 0 0 0 0 0 0 0 0 0 
0 0 0 0 0 0 0 0 0 0 0 0 0 0 0 0 0 0 0 0 0 0 0 0 
0 0 0 0 0 0 0 0 0 0 0 0 0 0 0 0 0 0 0 0 0 0 0 0 
0 0 0 0 0 0 0 0 0 0 0 0 0 0 0 0 0 0 0 0 0 0 0 0 
0 0 0 0 0 0 0 0 0 0 0 0 0 0 0 0 0 0 0 0 0 0 0 0 

0 0 0 0 0 0 0 0 0 0 0 0 0 0 0 0 0 0 0 0 0 0 0 0 
0 0 0 0 0 0 0 0 0 0 0 0 0 0 0 0 0 0 0 0 0 0 0 0 
0 0 0 0 0 0 0 0 0 66 57 19 53 96 21 57 85 22 66 57 19 66 57 19 
51 19 11 27 11 6 0 0 0 0 0 0 0 0 0 0 0 0 0 0 0 0 0 0 
0 0 0 0 0 0 0 0 0 0 0 0 0 0 0 0 0 0 0 0 0 0 0 0 
0 0 0 0 0 0 0 0 0 0 0 0 0 0 0 0 0 0 0 0 0 0 0 0 
0 0 0 0 0 0 0 0 0 0 0 0 0 0 0 0 0 0 0 0 0 0 0 0 
0 0 0 0 0 0 0 0 0 0 0 0 0 0 0 0 0 0 0 0 0 0 0 0 
0 0 0 0 0 0 0 0 0 0 0 0 0 0 0 0 0 0 0 0 0 0 0 0 
0 0 0 0 0 0 0 0 0 0 0 0 0 0 0 0 0 0 0 0 0 0 0 0 

0 0 0 0 0 0 0 0 0 0 0 0 0 0 0 0 0 0 0 0 0 0 0 0 
0 0 0 0 0 0 0 0 0 0 0 0 0 0 0 0 0 0 0 0 0 0 0 0 
0 0 0 0 0 0 0 0 0 81 77 18 73 140 5 20 121 14 7 117 16 7 117 16 
7 117 16 7 117 16 7 117 16 23 113 16 36 103 19 70 87 24 82 79 26 90 75 23 
94 64 26 94 55 26 87 46 24 75 38 21 62 27 18 43 18 10 15 7 3 0 0 0 
0 0 0 0 0 0 0 0 0 0 0 0 0 0 0 0 0 0 0 0 0 0 0 0 
0 0 0 0 0 0 0 0 0 0 0 0 0 0 0 0 0 0 0 0 0 0 0 0 
0 0 0 0 0 0 0 0 0 0 0 0 0 0 0 0 0 0 0 0 0 0 0 0 
0 0 0 0 0 0 0 0 0 0 0 0 0 0 0 0 0 0 0 0 0 0 0 0 
0 0 0 0 0 0 0 0 0 0 0 0 0 0 0 0 0 0 0 0 0 0 0 0 

0 0 0 0 0 0 0 0 0 0 0 0 0 0 0 0 0 0 0 0 0 0 0 0 
0 0 0 0 0 0 0 0 0 0 0 0 0 0 0 0 0 0 0 0 0 0 0 0 
0 0 0 0 0 0 0 0 0 0 0 0 87 140 3 89 145 2 44 129 10 7 117 16 
7 117 16 7 117 16 7 117 16 7 117 16 7 117 16 7 117 16 7 117 16 7 117 16 
7 117 16 7 117 16 7 117 16 7 117 16 7 117 16 7 117 16 7 117 16 15 113 17 
53 96 21 63 91 23 74 85 25 83 79 26 90 75 23 94 64 26 87 46 24 82 41 23 
51 19 11 0 0 0 0 0 0 0 0 0 0 0 0 0 0 0 0 0 0 0 0 0 
0 0 0 0 0 0 0 0 0 0 0 0 0 0 0 0 0 0 0 0 0 0 0 0 
0 0 0 0 0 0 0 0 0 0 0 0 0 0 0 0 0 0 0 0 0 0 0 0 
0 0 0 0 0 0 0 0 0 0 0 0 0 0 0 0 0 0 0 0 0 0 0 0 

0 0 0 0 0 0 0 0 0 0 0 0 0 0 0 0 0 0 0 0 0 0 0 0 
0 0 0 0 0 0 0 0 0 0 0 0 0 0 0 0 0 0 0 0 0 0 0 0 
0 0 0 0 0 0 0 0 0 0 0 0 81 77 18 89 145 2 89 145 2 62 136 6 
14 120 15 7 117 16 7 117 16 7 117 16 7 117 16 7 117 16 7 117 16 7 117 16 
7 117 16 7 117 16 7 117 16 7 117 16 7 117 16 7 117 16 7 117 16 7 117 16 
7 117 16 7 117 16 7 117 16 7 117 16 7 117 16 7 117 16 7 117 16 7 117 16 
136 145 28 141 125 28 0 0 0 0 0 0 0 0 0 0 0 0 0 0 0 0 0 0 
0 0 0 0 0 0 0 0 0 0 0 0 0 0 0 0 0 0 0 0 0 0 0 0 
0 0 0 0 0 0 0 0 0 0 0 0 0 0 0 0 0 0 0 0 0 0 0 0 
0 0 0 0 0 0 0 0 0 0 0 0 0 0 0 0 0 0 0 0 0 0 0 0 

0 0 0 0 0 0 0 0 0 0 0 0 0 0 0 0 0 0 0 0 0 0 0 0 
0 0 0 0 0 0 0 0 0 0 0 0 0 0 0 0 0 0 0 0 0 0 0 0 
0 0 0 0 0 0 0 0 0 0 0 0 0 0 0 82 135 6 89 145 2 89 145 2 
82 142 3 32 125 12 7 117 16 7 117 16 7 117 16 7 117 16 7 117 16 7 117 16 
7 117 16 7 117 16 7 117 16 7 117 16 7 117 16 7 117 16 7 117 16 7 117 16 
7 117 16 7 117 16 7 117 16 7 117 16 7 117 16 7 117 16 7 117 16 7 117 16 
67 137 22 166 197 31 164 123 32 0 0 0 0 0 0 0 0 0 0 0 0 0 0 0 
0 0 0 0 0 0 0 0 0 0 0 0 0 0 0 0 0 0 0 0 0 0 0 0 
0 0 0 0 0 0 0 0 0 0 0 0 0 0 0 0 0 0 0 0 0 0 0 0 
0 0 0 0 0 0 0 0 0 0 0 0 0 0 0 0 0 0 0 0 0 0 0 0 

0 0 0 0 0 0 0 0 0 0 0 0 0 0 0 0 0 0 0 0 0 0 0 0 
0 0 0 0 0 0 0 0 0 0 0 0 0 0 0 0 0 0 0 0 0 0 0 0 
0 0 0 0 0 0 0 0 0 0 0 0 0 0 0 88 69 22 89 145 2 89 145 2 
89 145 2 89 145 2 60 135 7 13 119 15 7 117 16 7 117 16 7 117 16 7 117 16 
7 117 16 7 117 16 7 117 16 7 117 16 7 117 16 7 117 16 7 117 16 7 117 16 
7 117 16 7 117 16 7 117 16 7 117 16 7 117 16 7 117 16 7 117 16 7 117 16 
11 118 16 167 194 31 166 197 31 179 128 35 14 3 3 0 0 0 0 0 0 0 0 0 
0 0 0 0 0 0 0 0 0 0 0 0 0 0 0 0 0 0 0 0 0 0 0 0 
0 0 0 0 0 0 0 0 0 0 0 0 0 0 0 0 0 0 0 0 0 0 0 0 
0 0 0 0 0 0 0 0 0 0 0 0 0 0 0 0 0 0 0 0 0 0 0 0 

0 0 0 0 0 0 0 0 0 0 0 0 0 0 0 0 0 0 0 0 0 0 0 0 
0 0 0 0 0 0 0 0 0 0 0 0 0 0 0 0 0 0 0 0 0 0 0 0 
0 0 0 0 0 0 0 0 0 0 0 0 0 0 0 0 0 0 82 135 6 89 145 2 
89 145 2 89 145 2 89 145 2 78 140 4 24 123 12 7 117 16 7 117 16 7 117 16 
7 117 16 7 117 16 7 117 16 7 117 16 7 117 16 7 117 16 7 117 16 7 117 16 
7 117 16 7 117 16 7 117 16 7 117 16 7 117 16 7 117 16 7 117 16 7 117 16 
7 117 16 164 167 30 166 197 31 166 197 31 181 147 34 36 16 9 0 0 0 0 0 0 
0 0 0 0 0 0 0 0 0 0 0 0 0 0 0 0 0 0 0 0 0 0 0 0 
0 0 0 0 0 0 0 0 0 0 0 0 0 0 0 0 0 0 0 0 0 0 0 0 
0 0 0 0 0 0 0 0 0 0 0 0 0 0 0 0 0 0 0 0 0 0 0 0 

0 0 0 0 0 0 0 0 0 0 0 0 0 0 0 0 0 0 0 0 0 0 0 0 
0 0 0 0 0 0 0 0 0 0 0 0 0 0 0 0 0 0 0 0 0 0 0 0 
0 0 0 0 0 0 0 0 0 0 0 0 0 0 0 0 0 0 81 77 18 89 145 2 
89 145 2 89 145 2 89 145 2 89 145 2 88 144 2 54 133 8 8 118 16 7 117 16 
7 117 16 7 117 16 7 117 16 7 117 16 7 117 16 7 117 16 7 117 16 7 117 16 
7 117 16 7 117 16 7 117 16 7 117 16 7 117 16 7 117 16 7 117 16 7 117 16 
7 117 16 136 145 28 166 197 31 166 197 31 166 197 31 173 176 32 74 35 17 0 0 0 
0 0 0 0 0 0 0 0 0 0 0 0 0 0 0 0 0 0 0 0 0 0 0 0 
0 0 0 0 0 0 0 0 0 0 0 0 0 0 0 0 0 0 0 0 0 0 0 0 
0 0 0 0 0 0 0 0 0 0 0 0 0 0 0 0 0 0 0 0 0 0 0 0 

0 0 0 0 0 0 0 0 0 0 0 0 0 0 0 0 0 0 0 0 0 0 0 0 
0 0 0 0 0 0 0 0 0 0 0 0 0 0 0 0 0 0 0 0 0 0 0 0 
0 0 0 0 0 0 0 0 0 0 0 0 0 0 0 0 0 0 0 0 0 82 135 6 
89 145 2 89 145 2 89 145 2 89 145 2 89 145 2 89 145 2 73 140 5 24 123 12 
7 117 16 7 117 16 7 117 16 7 117 16 7 117 16 7 117 16 7 117 16 7 117 16 
7 117 16 7 117 16 7 117 16 7 117 16 7 117 16 7 117 16 7 117 16 7 117 16 
7 117 16 80 131 23 166 197 31 166 197 31 166 197 31 166 197 31 172 180 32 117 59 26 
0 0 0 0 0 0 0 0 0 0 0 0 0 0 0 0 0 0 0 0 0 0 0 0 
0 0 0 0 0 0 0 0 0 0 0 0 0 0 0 0 0 0 0 0 0 0 0 0 
0 0 0 0 0 0 0 0 0 0 0 0 0 0 0 0 0 0 0 0 0 0 0 0 

0 0 0 0 0 0 0 0 0 0 0 0 0 0 0 0 0 0 0 0 0 0 0 0 
0 0 0 0 0 0 0 0 0 0 0 0 0 0 0 0 0 0 0 0 0 0 0 0 
0 0 0 0 0 0 0 0 0 0 0 0 0 0 0 0 0 0 0 0 0 92 78 22 
89 145 2 89 145 2 89 145 2 89 145 2 89 145 2 89 145 2 89 145 2 88 144 2 
44 129 10 7 117 16 7 117 16 7 117 16 7 117 16 7 117 16 7 117 16 7 117 16 
7 117 16 7 117 16 7 117 16 7 117 16 7 117 16 7 117 16 7 117 16 7 117 16 
7 117 16 24 124 15 166 197 31 166 197 31 166 197 31 166 197 31 166 197 31 168 192 31 
149 83 31 0 0 0 0 0 0 0 0 0 0 0 0 0 0 0 0 0 0 0 0 0 
0 0 0 0 0 0 0 0 0 0 0 0 0 0 0 0 0 0 0 0 0 0 0 0 
0 0 0 0 0 0 0 0 0 0 0 0 0 0 0 0 0 0 0 0 0 0 0 0 

0 0 0 0 0 0 0 0 0 0 0 0 0 0 0 0 0 0 0 0 0 0 0 0 
0 0 0 0 0 0 0 0 0 0 0 0 0 0 0 0 0 0 0 0 0 0 0 0 
0 0 0 0 0 0 0 0 0 0 0 0 0 0 0 0 0 0 0 0 0 4 2 0 
82 138 5 89 145 2 89 145 2 89 145 2 89 145 2 89 145 2 89 145 2 89 145 2 
89 145 2 67 138 5 16 120 14 7 117 16 7 117 16 7 117 16 7 117 16 7 117 16 
7 117 16 7 117 16 7 117 16 7 117 16 7 117 16 7 117 16 7 117 16 7 117 16 
7 117 16 7 117 16 166 177 31 166 197 31 166 197 31 166 197 31 166 197 31 166 197 31 
166 197 31 179 128 35 6 4 1 0 0 0 0 0 0 0 0 0 0 0 0 0 0 0 
0 0 0 0 0 0 0 0 0 0 0 0 0 0 0 0 0 0 0 0 0 0 0 0 
0 0 0 0 0 0 0 0 0 151 61 16 150 71 12 151 61 16 20 7 5 0 0 0 

0 0 0 0 0 0 0 0 0 0 0 0 0 0 0 0 0 0 0 0 0 0 0 0 
0 0 0 0 0 0 0 0 0 0 0 0 0 0 0 0 0 0 0 0 0 0 0 0 
0 0 0 0 0 0 0 0 0 0 0 0 0 0 0 0 0 0 0 0 0 0 0 0 
92 78 22 89 145 2 89 145 2 89 145 2 89 145 2 89 145 2 89 145 2 89 145 2 
89 145 2 89 145 2 84 143 3 36 127 11 7 117 16 7 117 16 7 117 16 7 117 16 
7 117 16 7 117 16 7 117 16 7 117 16 7 117 16 7 117 16 7 117 16 7 117 16 
7 117 16 7 117 16 150 150 29 166 197 31 166 197 31 166 197 31 166 197 31 166 197 31 
166 197 31 166 197 31 181 147 34 27 11 6 0 0 0 0 0 0 0 0 0 0 0 0 
0 0 0 0 0 0 0 0 0 0 0 0 0 0 0 0 0 0 0 0 0 0 0 0 
0 0 0 28 6 5 158 70 13 145 70 12 145 70 12 145 70 12 145 70 12 151 61 16 

0 0 0 0 0 0 0 0 0 0 0 0 0 0 0 0 0 0 0 0 0 0 0 0 
0 0 0 0 0 0 0 0 0 0 0 0 0 0 0 0 0 0 0 0 0 0 0 0 
0 0 0 0 0 0 0 0 0 0 0 0 0 0 0 0 0 0 0 0 0 0 0 0 
6 4 1 82 138 5 89 145 2 89 145 2 89 145 2 89 145 2 89 145 2 89 145 2 
89 145 2 89 145 2 89 145 2 89 145 2 62 136 6 13 119 15 7 117 16 7 117 16 
7 117 16 7 117 16 7 117 16 7 117 16 7 117 16 7 117 16 7 117 16 7 117 16 
7 117 16 7 117 16 111 133 25 166 197 31 166 197 31 166 197 31 166 197 31 166 197 31 
166 197 31 166 197 31 166 197 31 178 161 33 51 19 11 0 0 0 0 0 0 0 0 0 
0 0 0 0 0 0 0 0 0 0 0 0 0 0 0 0 0 0 0 0 0 0 0 0 
51 19 11 158 70 13 145 70 12 145 70 12 145 70 12 145 70 12 145 70 12 145 70 12 

0 0 0 0 0 0 0 0 0 0 0 0 0 0 0 0 0 0 0 0 0 0 0 0 
0 0 0 0 0 0 0 0 0 0 0 0 0 0 0 0 0 0 0 0 0 0 0 0 
0 0 0 0 0 0 0 0 0 0 0 0 0 0 0 0 0 0 0 0 0 0 0 0 
0 0 0 92 95 17 89 145 2 89 145 2 89 145 2 89 145 2 89 145 2 89 145 2 
89 145 2 89 145 2 89 145 2 89 145 2 89 145 2 82 142 3 32 125 12 7 117 16 
7 117 16 7 117 16 7 117 16 7 117 16 7 117 16 7 117 16 7 117 16 7 117 16 
7 117 16 7 117 16 53 121 19 166 197 31 166 197 31 166 197 31 166 197 31 166 197 31 
166 197 31 166 197 31 166 197 31 166 197 31 173 176 32 93 47 22 0 0 0 0 0 0 
0 0 0 0 0 0 0 0 0 0 0 0 0 0 0 0 0 0 0 0 0 83 21 18 
150 71 12 145 70 12 145 70 12 145 70 12 145 70 12 145 70 12 145 70 12 145 70 12 

0 0 0 0 0 0 0 0 0 0 0 0 0 0 0 0 0 0 0 0 0 0 0 0 
0 0 0 0 0 0 0 0 0 0 0 0 0 0 0 0 0 0 0 0 0 0 0 0 
0 0 0 0 0 0 0 0 0 0 0 0 0 0 0 0 0 0 0 0 0 0 0 0 
0 0 0 15 7 3 80 140 4 89 145 2 89 145 2 89 145 2 89 145 2 89 145 2 
89 145 2 89 145 2 89 145 2 89 145 2 89 145 2 89 145 2 88 144 2 54 133 8 
10 118 15 7 117 16 7 117 16 7 117 16 7 117 16 7 117 16 7 117 16 7 117 16 
7 117 16 7 117 16 10 118 15 169 187 32 166 197 31 166 197 31 166 197 31 166 197 31 
166 197 31 166 197 31 166 197 31 166 197 31 166 197 31 169 187 32 133 64 36 0 0 0 
0 0 0 0 0 0 0 0 0 0 0 0 0 0 0 0 0 0 135 37 23 147 70 12 
145 70 12 145 70 12 145 70 12 145 70 12 145 70 12 145 70 12 145 70 12 145 70 12 

0 0 0 0 0 0 0 0 0 0 0 0 0 0 0 0 0 0 0 0 0 0 0 0 
0 0 0 0 0 0 0 0 0 0 0 0 0 0 0 0 0 0 0 0 0 0 0 0 
0 0 0 0 0 0 0 0 0 0 0 0 0 0 0 0 0 0 0 0 0 0 0 0 
0 0 0 0 0 0 92 95 17 89 145 2 89 145 2 89 145 2 89 145 2 89 145 2 
89 145 2 89 145 2 89 145 2 89 145 2 89 145 2 89 145 2 89 145 2 89 145 2 
78 140 4 24 123 12 7 117 16 7 117 16 7 117 16 7 117 16 7 117 16 7 117 16 
7 117 16 7 117 16 7 117 16 164 163 30 166 197 31 166 197 31 166 197 31 166 197 31 
166 197 31 166 197 31 166 197 31 166 197 31 166 197 31 166 197 31 166 196 31 173 112 35 
1 1 0 0 0 0 0 0 0 0 0 0 0 0 0 0 0 0 177 80 15 153 73 12 
145 70 12 145 70 12 145 70 12 145 70 12 145 70 12 145 70 12 145 70 12 127 55 6 

0 0 0 0 0 0 0 0 0 0 0 0 0 0 0 0 0 0 0 0 0 0 0 0 
0 0 0 0 0 0 0 0 0 0 0 0 0 0 0 0 0 0 0 0 0 0 0 0 
0 0 0 0 0 0 0 0 0 0 0 0 0 0 0 0 0 0 0 0 0 0 0 0 
0 0 0 0 0 0 15 7 3 83 141 4 89 145 2 89 145 2 89 145 2 89 145 2 
89 145 2 89 145 2 89 145 2 89 145 2 89 145 2 89 145 2 89 145 2 89 145 2 
89 145 2 88 144 2 44 129 10 7 117 16 7 117 16 7 117 16 7 117 16 7 117 16 
7 117 16 7 117 16 7 117 16 136 145 28 166 197 31 166 197 31 166 197 31 166 197 31 
166 197 31 166 197 31 166 197 31 166 197 31 166 197 31 166 197 31 166 197 31 166 197 31 
149 83 31 0 0 0 0 0 0 0 0 0 0 0 0 0 0 0 186 60 26 182 90 14 
179 87 13 164 79 12 153 73 12 145 70 12 145 70 12 145 70 12 127 55 6 103 39 3 

0 0 0 0 0 0 0 0 0 0 0 0 0 0 0 0 0 0 0 0 0 0 0 0 
0 0 0 0 0 0 0 0 0 0 0 0 0 0 0 0 0 0 0 0 0 0 0 0 
0 0 0 0 0 0 0 0 0 0 0 0 0 0 0 0 0 0 0 0 0 0 0 0 
0 0 0 0 0 0 0 0 0 92 95 17 89 145 2 89 145 2 89 145 2 89 145 2 
89 145 2 89 145 2 89 145 2 89 145 2 89 145 2 89 145 2 89 145 2 89 145 2 
89 145 2 89 145 2 89 145 2 73 140 5 20 121 14 7 117 16 7 117 16 7 117 16 
7 117 16 7 117 16 7 117 16 80 131 23 166 197 31 166 197 31 166 197 31 166 197 31 
166 197 31 166 197 31 166 197 31 166 197 31 166 197 31 166 197 31 166 197 31 166 197 31 
172 180 32 27 11 6 0 0 0 0 0 0 0 0 0 0 0 0 153 42 25 182 90 14 
182 90 14 182 90 14 182 90 14 170 82 12 159 77 11 127 55 6 103 39 3 103 39 3 

0 0 0 0 0 0 0 0 0 0 0 0 0 0 0 0 0 0 0 0 0 0 0 0 
0 0 0 0 0 0 0 0 0 0 0 0 0 0 0 0 0 0 0 0 0 0 0 0 
0 0 0 0 0 0 0 0 0 0 0 0 0 0 0 0 0 0 0 0 0 0 0 0 
0 0 0 0 0 0 0 0 0 20 12 6 83 141 4 89 145 2 89 145 2 89 145 2 
89 145 2 89 145 2 89 145 2 89 145 2 89 145 2 89 145 2 89 145 2 89 145 2 
89 145 2 89 145 2 89 145 2 89 145 2 85 143 2 40 128 11 7 117 16 7 117 16 
7 117 16 7 117 16 7 117 16 24 124 15 166 197 31 166 197 31 166 197 31 166 197 31 
166 197 31 166 197 31 166 197 31 166 197 31 166 197 31 166 197 31 166 197 31 166 197 31 
166 197 31 173 99 29 0 0 0 0 0 0 0 0 0 0 0 0 54 10 11 182 90 14 
182 90 14 182 90 14 182 90 14 182 90 14 181 89 14 109 43 4 103 39 3 103 39 3 

0 0 0 0 0 0 0 0 0 0 0 0 0 0 0 0 0 0 0 0 0 0 0 0 
0 0 0 0 0 0 0 0 0 0 0 0 0 0 0 0 0 0 0 0 0 0 0 0 
0 0 0 0 0 0 0 0 0 0 0 0 0 0 0 0 0 0 0 0 0 0 0 0 
0 0 0 0 0 0 0 0 0 0 0 0 92 95 17 89 145 2 89 145 2 89 145 2 
89 145 2 89 145 2 89 145 2 89 145 2 89 145 2 89 145 2 89 145 2 89 145 2 
89 145 2 89 145 2 89 145 2 89 145 2 89 145 2 89 145 2 67 138 5 15 120 14 
7 117 16 7 117 16 7 117 16 7 117 16 166 177 31 166 197 31 166 197 31 166 197 31 
166 197 31 166 197 31 166 197 31 166 197 31 166 197 31 166 197 31 166 197 31 166 197 31 
166 197 31 170 183 31 43 18 10 0 0 0 0 0 0 0 0 0 0 0 0 190 76 19 
182 90 14 182 90 14 182 90 14 182 90 14 182 90 14 109 43 4 103 39 3 103 39 3 

0 0 0 0 0 0 0 0 0 0 0 0 0 0 0 0 0 0 0 0 0 0 0 0 
0 0 0 0 0 0 0 0 0 0 0 0 0 0 0 0 0 0 0 0 0 0 0 0 
0 0 0 0 0 0 0 0 0 0 0 0 0 0 0 0 0 0 0 0 0 0 0 0 
0 0 0 0 0 0 0 0 0 0 0 0 20 12 6 83 141 4 89 145 2 89 145 2 
89 145 2 89 145 2 89 145 2 89 145 2 89 145 2 89 145 2 89 145 2 89 145 2 
89 145 2 89 145 2 89 145 2 89 145 2 89 145 2 89 145 2 89 145 2 83 142 3 
36 127 11 7 117 16 7 117 16 7 117 16 150 150 29 166 197 31 166 197 31 166 197 31 
166 197 31 166 197 31 166 197 31 166 197 31 166 197 31 166 197 31 166 197 31 166 197 31 
166 197 31 166 197 31 173 112 35 0 0 0 0 0 0 0 0 0 0 0 0 186 60 26 
182 90 14 182 90 14 182 90 14 182 90 14 182 90 14 123 53 6 103 39 3 103 39 3 

0 0 0 0 0 0 0 0 0 0 0 0 0 0 0 0 0 0 0 0 0 0 0 0 
0 0 0 0 0 0 0 0 0 0 0 0 0 0 0 0 0 0 0 0 0 0 0 0 
0 0 0 0 0 0 0 0 0 0 0 0 0 0 0 0 0 0 0 0 0 0 0 0 
0 0 0 0 0 0 0 0 0 0 0 0 0 0 0 91 106 14 89 145 2 89 145 2 
89 145 2 89 145 2 89 145 2 89 145 2 89 145 2 89 145 2 89 145 2 89 145 2 
89 145 2 89 145 2 89 145 2 89 145 2 89 145 2 89 145 2 89 145 2 89 145 2 
89 145 2 60 135 7 13 119 15 7 117 16 80 131 23 166 197 31 166 197 31 166 197 31 
166 197 31 166 197 31 166 197 31 166 197 31 166 197 31 166 197 31 166 197 31 166 197 31 
166 197 31 166 197 31 168 192 31 74 35 17 0 0 0 0 0 0 0 0 0 142 39 23 
182 90 14 182 90 14 182 90 14 182 90 14 182 90 14 127 55 6 103 39 3 103 39 3 

0 0 0 0 0 0 0 0 0 0 0 0 0 0 0 0 0 0 0 0 0 0 0 0 
0 0 0 0 0 0 0 0 0 0 0 0 0 0 0 0 0 0 0 0 0 0 0 0 
0 0 0 0 0 0 0 0 0 0 0 0 0 0 0 0 0 0 0 0 0 0 0 0 
0 0 0 0 0 0 0 0 0 0 0 0 0 0 0 32 20 7 83 142 3 89 145 2 
89 145 2 89 145 2 89 145 2 89 145 2 89 145 2 89 145 2 89 145 2 89 145 2 
89 145 2 89 145 2 89 145 2 89 145 2 89 145 2 89 145 2 89 145 2 89 145 2 
89 145 2 89 145 2 82 142 3 24 123 12 16 119 15 166 197 31 166 197 31 166 197 31 
166 197 31 166 197 31 166 197 31 166 197 31 166 197 31 166 197 31 166 197 31 166 197 31 
166 197 31 166 197 31 166 197 31 179 128 35 0 0 0 0 0 0 0 0 0 48 10 10 
183 88 14 182 90 14 182 90 14 182 90 14 182 90 14 143 65 9 103 39 3 103 39 3 

0 0 0 0 0 0 0 0 0 0 0 0 0 0 0 0 0 0 0 0 0 0 0 0 
0 0 0 0 0 0 0 0 0 0 0 0 0 0 0 0 0 0 0 0 0 0 0 0 
0 0 0 0 0 0 0 0 0 0 0 0 0 0 0 0 0 0 0 0 0 0 0 0 
0 0 0 0 0 0 0 0 0 0 0 0 0 0 0 0 0 0 91 106 14 89 145 2 
89 145 2 89 145 2 89 145 2 89 145 2 89 145 2 89 145 2 89 145 2 89 145 2 
89 145 2 89 145 2 89 145 2 89 145 2 89 145 2 89 145 2 89 145 2 89 145 2 
89 145 2 89 145 2 89 145 2 86 143 2 20 121 14 161 188 30 166 197 31 166 197 31 
166 197 31 166 197 31 166 197 31 166 197 31 166 197 31 166 197 31 166 197 31 166 197 31 
166 197 31 166 197 31 166 197 31 167 194 31 93 47 22 0 0 0 0 0 0 0 0 0 
190 76 19 182 90 14 182 90 14 182 90 14 182 90 14 143 65 9 103 39 3 103 39 3 

0 0 0 0 0 0 0 0 0 0 0 0 0 0 0 0 0 0 0 0 0 0 0 0 
0 0 0 0 0 0 0 0 0 0 0 0 0 0 0 0 0 0 0 0 0 0 0 0 
0 0 0 0 0 0 0 0 0 0 0 0 0 0 0 0 0 0 0 0 0 0 0 0 
0 0 0 0 0 0 0 0 0 0 0 0 0 0 0 0 0 0 32 20 7 85 143 2 
89 145 2 89 145 2 89 145 2 89 145 2 89 145 2 89 145 2 89 145 2 89 145 2 
89 145 2 89 145 2 89 145 2 89 145 2 89 145 2 89 145 2 89 145 2 89 145 2 
89 145 2 78 140 4 54 133 8 32 125 12 10 118 15 80 131 23 173 176 32 166 197 31 
166 197 31 166 197 31 166 197 31 166 197 31 166 197 31 166 197 31 166 197 31 166 197 31 
166 197 31 166 197 31 166 197 31 166 197 31 181 147 34 0 0 0 0 0 0 0 0 0 
186 60 26 182 90 14 182 90 14 182 90 14 182 90 14 153 73 12 103 39 3 103 39 3 

0 0 0 0 0 0 0 0 0 0 0 0 0 0 0 0 0 0 0 0 0 0 0 0 
0 0 0 0 0 0 0 0 0 0 0 0 0 0 0 0 0 0 0 0 0 0 0 0 
0 0 0 0 0 0 0 0 0 0 0 0 0 0 0 0 0 0 0 0 0 0 0 0 
0 0 0 0 0 0 0 0 0 0 0 0 0 0 0 0 0 0 0 0 0 91 111 13 
89 145 2 89 145 2 89 145 2 89 145 2 89 145 2 89 145 2 89 145 2 89 145 2 
89 145 2 89 145 2 89 145 2 89 145 2 89 145 2 78 140 4 60 135 7 40 128 11 
16 120 14 7 117 16 7 117 16 7 117 16 7 117 16 7 117 16 20 121 14 150 150 29 
166 197 31 166 197 31 166 197 31 166 197 31 166 197 31 166 197 31 166 197 31 166 197 31 
166 197 31 166 197 31 166 197 31 166 197 31 166 197 31 117 59 26 0 0 0 0 0 0 
142 39 23 182 90 14 182 90 14 182 90 14 182 90 14 164 79 12 103 39 3 103 39 3 

0 0 0 0 0 0 0 0 0 0 0 0 0 0 0 0 0 0 0 0 0 0 0 0 
0 0 0 0 0 0 0 0 0 0 0 0 0 0 0 0 0 0 0 0 0 0 0 0 
0 0 0 0 0 0 0 0 0 0 0 0 0 0 0 0 0 0 0 0 0 0 0 0 
0 0 0 0 0 0 0 0 0 0 0 0 0 0 0 0 0 0 0 0 0 32 20 7 
86 143 2 89 145 2 89 145 2 89 145 2 89 145 2 89 145 2 89 145 2 89 145 2 
89 145 2 78 140 4 60 135 7 40 128 11 16 120 14 7 117 16 7 117 16 7 117 16 
7 117 16 7 117 16 7 117 16 7 117 16 7 117 16 7 117 16 7 117 16 8 118 16 
111 133 25 168 192 31 166 197 31 166 197 31 166 197 31 166 197 31 166 197 31 166 197 31 
166 197 31 166 197 31 166 197 31 166 197 31 166 197 31 180 156 33 4 2 0 0 0 0 
38 8 9 183 88 14 182 90 14 182 90 14 182 90 14 170 82 12 103 39 3 103 39 3 

0 0 0 0 0 0 0 0 0 0 0 0 0 0 0 0 0 0 0 0 0 0 0 0 
0 0 0 0 0 0 0 0 0 0 0 0 0 0 0 0 0 0 0 0 0 0 0 0 
0 0 0 0 0 0 0 0 0 0 0 0 0 0 0 0 0 0 0 0 0 0 0 0 
0 0 0 0 0 0 0 0 0 0 0 0 0 0 0 0 0 0 0 0 0 0 0 0 
91 111 13 89 145 2 89 145 2 89 145 2 89 145 2 78 140 4 54 133 7 36 127 11 
14 120 15 7 117 16 7 117 16 7 117 16 7 117 16 7 117 16 7 117 16 7 117 16 
7 117 16 7 117 16 7 117 16 7 117 16 7 117 16 7 117 16 7 117 16 7 117 16 
7 117 16 53 121 19 168 172 30 166 197 31 166 197 31 166 197 31 166 197 31 166 197 31 
166 197 31 166 197 31 166 197 31 166 197 31 166 197 31 166 197 31 149 83 31 0 0 0 
0 0 0 190 76 19 182 90 14 182 90 14 182 90 14 181 89 14 103 39 3 103 39 3 

0 0 0 0 0 0 0 0 0 0 0 0 0 0 0 0 0 0 0 0 0 0 0 0 
0 0 0 0 0 0 0 0 0 0 0 0 0 0 0 0 0 0 0 0 0 0 0 0 
0 0 0 0 0 0 0 0 0 0 0 0 0 0 0 0 0 0 0 0 0 0 0 0 
0 0 0 0 0 0 0 0 0 0 0 0 0 0 0 0 0 0 0 0 0 0 0 0 
32 20 7 78 140 4 60 135 7 36 127 11 16 120 14 7 117 16 7 117 16 7 117 16 
7 117 16 7 117 16 7 117 16 7 117 16 7 117 16 7 117 16 7 117 16 7 117 16 
7 117 16 7 117 16 7 117 16 7 117 16 7 117 16 7 117 16 7 117 16 7 117 16 
7 117 16 7 117 16 14 120 15 148 146 29 166 197 31 166 197 31 166 197 31 166 197 31 
166 197 31 166 197 31 166 197 31 166 197 31 166 197 31 166 197 31 173 176 32 20 7 5 
0 0 0 186 60 26 182 90 14 182 90 14 182 90 14 182 90 14 109 43 4 103 39 3 

0 0 0 0 0 0 0 0 0 0 0 0 0 0 0 0 0 0 0 0 0 0 0 0 
0 0 0 0 0 0 0 0 0 0 0 0 0 0 0 0 0 0 0 0 0 0 0 0 
0 0 0 0 0 0 0 0 0 0 0 0 0 0 0 0 0 0 0 0 0 0 0 0 
0 0 0 0 0 0 0 0 0 0 0 0 0 0 0 0 0 0 0 0 0 0 0 0 
0 0 0 74 35 17 63 91 23 7 117 16 7 117 16 7 117 16 7 117 16 7 117 16 
7 117 16 7 117 16 7 117 16 7 117 16 7 117 16 7 117 16 7 117 16 7 117 16 
7 117 16 7 117 16 7 117 16 7 117 16 7 117 16 7 117 16 7 117 16 7 117 16 
7 117 16 7 117 16 7 117 16 7 117 16 100 128 24 169 187 31 166 197 31 166 197 31 
166 197 31 166 197 31 166 197 31 166 197 31 166 197 31 166 197 31 166 197 31 173 99 29 
0 0 0 135 37 23 182 90 14 182 90 14 182 90 14 182 90 14 109 43 4 103 39 3 

0 0 0 0 0 0 0 0 0 0 0 0 0 0 0 0 0 0 0 0 0 0 0 0 
0 0 0 0 0 0 0 0 0 0 0 0 0 0 0 0 0 0 0 0 0 0 0 0 
0 0 0 0 0 0 0 0 0 0 0 0 0 0 0 0 0 0 0 0 0 0 0 0 
0 0 0 0 0 0 0 0 0 0 0 0 0 0 0 0 0 0 0 0 0 0 0 0 
0 0 0 0 0 0 0 0 0 82 41 23 53 96 21 7 117 16 7 117 16 7 117 16 
7 117 16 7 117 16 7 117 16 7 117 16 7 117 16 7 117 16 7 117 16 7 117 16 
7 117 16 7 117 16 7 117 16 7 117 16 7 117 16 7 117 16 7 117 16 7 117 16 
7 117 16 7 117 16 7 117 16 7 117 16 7 117 16 53 121 19 168 172 30 166 197 31 
166 197 31 166 197 31 166 197 31 166 197 31 166 197 31 166 197 31 166 197 31 169 187 31 
43 18 10 28 6 5 183 88 14 182 90 14 182 90 14 182 90 14 127 55 6 103 39 3 

0 0 0 0 0 0 0 0 0 0 0 0 0 0 0 0 0 0 0 0 0 0 0 0 
0 0 0 0 0 0 0 0 0 0 0 0 0 0 0 0 0 0 0 0 0 0 0 0 
0 0 0 0 0 0 0 0 0 0 0 0 0 0 0 0 0 0 0 0 0 0 0 0 
0 0 0 0 0 0 0 0 0 0 0 0 0 0 0 0 0 0 0 0 0 0 0 0 
0 0 0 0 0 0 0 0 0 0 0 0 0 0 0 87 46 24 40 102 20 7 117 16 
7 117 16 7 117 16 7 117 16 7 117 16 7 117 16 7 117 16 7 117 16 7 117 16 
7 117 16 7 117 16 7 117 16 7 117 16 7 117 16 7 117 16 7 117 16 7 117 16 
7 117 16 7 117 16 7 117 16 7 117 16 7 117 16 7 117 16 16 119 15 148 146 29 
166 197 31 166 197 31 166 197 31 166 197 31 166 197 31 166 197 31 166 197 31 166 197 31 
173 112 35 0 0 0 186 60 26 182 90 14 182 90 14 182 90 14 159 77 11 103 39 3 

0 0 0 0 0 0 0 0 0 0 0 0 0 0 0 0 0 0 0 0 0 0 0 0 
0 0 0 0 0 0 0 0 0 0 0 0 0 0 0 0 0 0 0 0 0 0 0 0 
0 0 0 0 0 0 0 0 0 0 0 0 0 0 0 0 0 0 0 0 0 0 0 0 
0 0 0 0 0 0 0 0 0 0 0 0 0 0 0 0 0 0 0 0 0 0 0 0 
0 0 0 0 0 0 0 0 0 0 0 0 0 0 0 0 0 0 6 4 1 57 85 22 
15 113 17 7 117 16 7 117 16 7 117 16 7 117 16 7 117 16 7 117 16 7 117 16 
7 117 16 7 117 16 7 117 16 7 117 16 7 117 16 7 117 16 7 117 16 7 117 16 
7 117 16 7 117 16 7 117 16 7 117 16 7 117 16 7 117 16 7 117 16 7 117 16 
100 128 24 169 187 32 166 197 31 166 197 31 166 197 31 166 197 31 166 197 31 166 197 31 
169 187 31 59 26 14 135 37 23 182 90 14 182 90 14 182 90 14 181 89 14 109 43 4 

0 0 0 0 0 0 0 0 0 0 0 0 0 0 0 0 0 0 0 0 0 0 0 0 
0 0 0 0 0 0 0 0 0 0 0 0 0 0 0 0 0 0 0 0 0 0 0 0 
0 0 0 0 0 0 0 0 0 0 0 0 0 0 0 0 0 0 0 0 0 0 0 0 
0 0 0 0 0 0 0 0 0 0 0 0 0 0 0 0 0 0 0 0 0 0 0 0 
0 0 0 0 0 0 0 0 0 0 0 0 0 0 0 0 0 0 0 0 0 0 0 0 
15 7 3 64 87 23 15 113 17 7 117 16 7 117 16 7 117 16 7 117 16 7 117 16 
7 117 16 7 117 16 7 117 16 7 117 16 7 117 16 7 117 16 7 117 16 7 117 16 
7 117 16 7 117 16 7 117 16 7 117 16 7 117 16 7 117 16 7 117 16 7 117 16 
7 117 16 45 122 19 164 167 30 166 197 31 166 197 31 166 197 31 166 197 31 166 197 31 
166 197 31 179 128 35 0 0 0 190 76 19 182 90 14 182 90 14 182 90 14 143 65 9 

0 0 0 0 0 0 0 0 0 0 0 0 0 0 0 0 0 0 0 0 0 0 0 0 
0 0 0 0 0 0 0 0 0 0 0 0 0 0 0 0 0 0 0 0 0 0 0 0 
0 0 0 0 0 0 0 0 0 0 0 0 0 0 0 0 0 0 0 0 0 0 0 0 
0 0 0 0 0 0 0 0 0 0 0 0 0 0 0 0 0 0 0 0 0 0 0 0 
0 0 0 0 0 0 0 0 0 0 0 0 0 0 0 0 0 0 0 0 0 0 0 0 
0 0 0 0 0 0 20 12 6 57 85 22 12 115 16 7 117 16 7 117 16 7 117 16 
7 117 16 7 117 16 7 117 16 7 117 16 7 117 16 7 117 16 7 117 16 7 117 16 
7 117 16 7 117 16 7 117 16 7 117 16 7 117 16 7 117 16 7 117 16 7 117 16 
7 117 16 7 117 16 14 119 15 148 146 29 166 197 31 166 197 31 166 197 31 166 197 31 
166 197 31 168 192 31 74 35 17 153 42 25 182 90 14 182 90 14 182 90 14 164 79 12 

0 0 0 0 0 0 0 0 0 0 0 0 0 0 0 0 0 0 0 0 0 0 0 0 
0 0 0 0 0 0 0 0 0 0 0 0 0 0 0 0 0 0 0 0 0 0 0 0 
0 0 0 0 0 0 0 0 0 0 0 0 0 0 0 0 0 0 0 0 0 0 0 0 
0 0 0 0 0 0 0 0 0 0 0 0 0 0 0 0 0 0 0 0 0 0 0 0 
0 0 0 0 0 0 0 0 0 0 0 0 0 0 0 0 0 0 0 0 0 0 0 0 
0 0 0 0 0 0 0 0 0 0 0 0 36 16 9 90 75 23 14 113 16 7 117 16 
7 117 16 7 117 16 7 117 16 7 117 16 7 117 16 7 117 16 7 117 16 7 117 16 
7 117 16 7 117 16 7 117 16 7 117 16 7 117 16 7 117 16 7 117 16 7 117 16 
7 117 16 7 117 16 7 117 16 7 117 16 100 128 24 169 187 31 166 197 31 166 197 31 
166 197 31 166 197 31 179 128 35 9 1 2 188 81 17 182 90 14 182 90 14 182 90 14 

0 0 0 0 0 0 0 0 0 0 0 0 0 0 0 0 0 0 0 0 0 0 0 0 
0 0 0 0 0 0 0 0 0 0 0 0 0 0 0 0 0 0 0 0 0 0 0 0 
0 0 0 0 0 0 0 0 0 0 0 0 0 0 0 0 0 0 0 0 0 0 0 0 
0 0 0 0 0 0 0 0 0 0 0 0 0 0 0 0 0 0 0 0 0 0 0 0 
0 0 0 0 0 0 0 0 0 0 0 0 0 0 0 0 0 0 0 0 0 0 0 0 
0 0 0 0 0 0 0 0 0 0 0 0 0 0 0 0 0 0 51 19 11 82 79 26 
9 116 16 7 117 16 7 117 16 7 117 16 7 117 16 7 117 16 7 117 16 7 117 16 
7 117 16 7 117 16 7 117 16 7 117 16 7 117 16 7 117 16 7 117 16 7 117 16 
7 117 16 7 117 16 7 117 16 7 117 16 7 117 16 45 122 19 164 167 30 166 197 31 
166 197 31 166 197 31 166 196 31 108 60 25 169 50 25 182 90 14 182 90 14 182 90 14 

0 0 0 0 0 0 0 0 0 0 0 0 0 0 0 0 0 0 0 0 0 0 0 0 
0 0 0 0 0 0 0 0 0 0 0 0 0 0 0 0 0 0 0 0 0 0 0 0 
0 0 0 0 0 0 0 0 0 0 0 0 0 0 0 0 0 0 0 0 0 0 0 0 
0 0 0 0 0 0 0 0 0 0 0 0 0 0 0 0 0 0 0 0 0 0 0 0 
0 0 0 0 0 0 0 0 0 0 0 0 0 0 0 0 0 0 0 0 0 0 0 0 
0 0 0 0 0 0 0 0 0 0 0 0 0 0 0 0 0 0 0 0 0 0 0 0 
62 27 18 90 75 23 70 87 24 40 102 20 12 115 16 7 117 16 7 117 16 7 117 16 
7 117 16 7 117 16 7 117 16 7 117 16 7 117 16 7 117 16 7 117 16 7 117 16 
7 117 16 7 117 16 7 117 16 7 117 16 7 117 16 7 117 16 14 120 15 148 146 29 
166 197 31 166 197 31 166 197 31 180 156 33 14 3 3 188 81 17 182 90 14 182 90 14 

0 0 0 0 0 0 0 0 0 0 0 0 0 0 0 0 0 0 0 0 0 0 0 0 
0 0 0 0 0 0 0 0 0 0 0 0 0 0 0 0 0 0 0 0 0 0 0 0 
0 0 0 0 0 0 0 0 0 0 0 0 0 0 0 0 0 0 0 0 0 0 0 0 
0 0 0 0 0 0 0 0 0 0 0 0 0 0 0 0 0 0 0 0 0 0 0 0 
0 0 0 0 0 0 0 0 0 0 0 0 0 0 0 0 0 0 0 0 0 0 0 0 
0 0 0 0 0 0 0 0 0 0 0 0 0 0 0 0 0 0 0 0 0 0 0 0 
0 0 0 0 0 0 0 0 0 0 0 0 14 5 3 62 27 18 94 55 26 74 85 25 
36 103 19 7 117 16 7 117 16 7 117 16 7 117 16 7 117 16 7 117 16 7 117 16 
7 117 16 7 117 16 7 117 16 7 117 16 7 117 16 7 117 16 7 117 16 7 117 16 
100 128 24 169 187 31 166 197 31 166 197 31 133 64 36 169 50 25 182 90 14 182 90 14 

0 0 0 0 0 0 0 0 0 0 0 0 0 0 0 0 0 0 0 0 0 0 0 0 
0 0 0 0 0 0 0 0 0 0 0 0 0 0 0 0 0 0 0 0 0 0 0 0 
0 0 0 0 0 0 0 0 0 0 0 0 0 0 0 0 0 0 0 0 0 0 0 0 
0 0 0 0 0 0 0 0 0 0 0 0 0 0 0 0 0 0 0 0 0 0 0 0 
0 0 0 0 0 0 0 0 0 0 0 0 0 0 0 0 0 0 0 0 0 0 0 0 
0 0 0 0 0 0 0 0 0 0 0 0 0 0 0 0 0 0 0 0 0 0 0 0 
0 0 0 0 0 0 0 0 0 0 0 0 0 0 0 0 0 0 0 0 0 0 0 0 
0 0 0 36 16 9 87 46 24 94 64 26 74 85 25 36 103 19 7 117 16 7 117 16 
7 117 16 7 117 16 7 117 16 7 117 16 7 117 16 7 117 16 7 117 16 7 117 16 
7 117 16 45 122 19 164 167 30 166 197 31 178 161 33 133 64 36 188 111 36 182 90 14 

0 0 0 0 0 0 0 0 0 0 0 0 0 0 0 0 0 0 0 0 0 0 0 0 
0 0 0 0 0 0 0 0 0 0 0 0 0 0 0 0 0 0 0 0 0 0 0 0 
0 0 0 0 0 0 0 0 0 0 0 0 0 0 0 0 0 0 0 0 0 0 0 0 
0 0 0 0 0 0 0 0 0 0 0 0 0 0 0 0 0 0 0 0 0 0 0 0 
0 0 0 0 0 0 0 0 0 0 0 0 0 0 0 0 0 0 0 0 0 0 0 0 
0 0 0 0 0 0 0 0 0 0 0 0 0 0 0 0 0 0 0 0 0 0 0 0 
0 0 0 0 0 0 0 0 0 0 0 0 0 0 0 0 0 0 0 0 0 0 0 0 
0 0 0 0 0 0 0 0 0 0 0 0 0 0 0 0 0 0 20 7 5 75 38 21 
94 64 26 82 79 26 53 96 21 14 113 16 7 117 16 7 117 16 7 117 16 7 117 16 
7 117 16 7 117 16 14 119 15 150 150 29 166 197 31 228 162 116 228 162 116 182 90 14 

0 0 0 0 0 0 0 0 0 0 0 0 0 0 0 0 0 0 0 0 0 0 0 0 
0 0 0 0 0 0 0 0 0 0 0 0 0 0 0 0 0 0 0 0 0 0 0 0 
0 0 0 0 0 0 0 0 0 0 0 0 0 0 0 0 0 0 0 0 0 0 0 0 
0 0 0 0 0 0 0 0 0 0 0 0 0 0 0 0 0 0 0 0 0 0 0 0 
0 0 0 0 0 0 0 0 0 0 0 0 0 0 0 0 0 0 0 0 0 0 0 0 
0 0 0 0 0 0 0 0 0 0 0 0 0 0 0 0 0 0 0 0 0 0 0 0 
0 0 0 0 0 0 0 0 0 0 0 0 0 0 0 0 0 0 0 0 0 0 0 0 
0 0 0 0 0 0 0 0 0 0 0 0 0 0 0 0 0 0 0 0 0 0 0 0 
0 0 0 0 0 0 0 0 0 7 2 2 62 27 18 94 55 26 90 75 23 63 91 23 
23 113 16 7 117 16 7 117 16 9 116 16 55 106 20 169 187 32 228 162 116 182 90 14 

0 0 0 0 0 0 0 0 0 0 0 0 0 0 0 0 0 0 0 0 0 0 0 0 
0 0 0 0 0 0 0 0 0 0 0 0 0 0 0 0 0 0 0 0 0 0 0 0 
0 0 0 0 0 0 0 0 0 0 0 0 0 0 0 0 0 0 0 0 0 0 0 0 
0 0 0 0 0 0 0 0 0 0 0 0 0 0 0 0 0 0 0 0 0 0 0 0 
0 0 0 0 0 0 0 0 0 0 0 0 0 0 0 0 0 0 0 0 0 0 0 0 
0 0 0 0 0 0 0 0 0 0 0 0 0 0 0 0 0 0 0 0 0 0 0 0 
0 0 0 0 0 0 0 0 0 0 0 0 0 0 0 0 0 0 0 0 0 0 0 0 
0 0 0 0 0 0 0 0 0 0 0 0 0 0 0 0 0 0 0 0 0 0 0 0 
0 0 0 0 0 0 0 0 0 0 0 0 0 0 0 0 0 0 54 10 11 186 21 39 
232 16 42 235 11 38 227 17 40 173 33 39 108 60 25 74 85 25 213 127 82 213 127 82 

0 0 0 0 0 0 0 0 0 0 0 0 0 0 0 0 0 0 0 0 0 0 0 0 
0 0 0 0 0 0 0 0 0 0 0 0 0 0 0 0 0 0 0 0 0 0 0 0 
0 0 0 0 0 0 0 0 0 0 0 0 0 0 0 0 0 0 0 0 0 0 0 0 
0 0 0 0 0 0 0 0 0 0 0 0 0 0 0 0 0 0 0 0 0 0 0 0 
0 0 0 0 0 0 0 0 0 0 0 0 0 0 0 0 0 0 0 0 0 0 0 0 
0 0 0 0 0 0 0 0 0 0 0 0 0 0 0 0 0 0 0 0 0 0 0 0 
0 0 0 0 0 0 0 0 0 0 0 0 0 0 0 0 0 0 0 0 0 0 0 0 
0 0 0 0 0 0 0 0 0 0 0 0 0 0 0 0 0 0 0 0 0 0 0 0 
0 0 0 0 0 0 0 0 0 54 10 11 186 21 39 232 16 42 234 9 36 234 9 35 
234 9 35 234 9 35 234 9 35 234 9 35 234 9 35 234 9 35 232 16 42 213 127 82 

0 0 0 0 0 0 0 0 0 0 0 0 0 0 0 0 0 0 0 0 0 0 0 0 
0 0 0 0 0 0 0 0 0 0 0 0 0 0 0 0 0 0 0 0 0 0 0 0 
0 0 0 0 0 0 0 0 0 0 0 0 0 0 0 0 0 0 0 0 0 0 0 0 
0 0 0 0 0 0 0 0 0 0 0 0 0 0 0 0 0 0 0 0 0 0 0 0 
0 0 0 0 0 0 0 0 0 0 0 0 0 0 0 0 0 0 0 0 0 0 0 0 
0 0 0 0 0 0 0 0 0 0 0 0 0 0 0 0 0 0 0 0 0 0 0 0 
0 0 0 0 0 0 0 0 0 0 0 0 0 0 0 0 0 0 0 0 0 0 0 0 
0 0 0 0 0 0 0 0 0 0 0 0 0 0 0 0 0 0 0 0 0 0 0 0 
52 8 13 186 21 39 232 16 42 234 9 36 234 9 35 234 9 35 234 9 35 234 9 35 
234 9 35 234 9 35 234 9 35 234 9 35 234 9 35 234 9 35 234 9 35 234 9 35 

0 0 0 0 0 0 0 0 0 0 0 0 0 0 0 0 0 0 0 0 0 0 0 0 
0 0 0 0 0 0 0 0 0 0 0 0 0 0 0 0 0 0 0 0 0 0 0 0 
0 0 0 0 0 0 0 0 0 0 0 0 0 0 0 0 0 0 0 0 0 0 0 0 
0 0 0 0 0 0 0 0 0 0 0 0 0 0 0 0 0 0 0 0 0 0 0 0 
0 0 0 0 0 0 0 0 0 0 0 0 0 0 0 0 0 0 0 0 0 0 0 0 
0 0 0 0 0 0 0 0 0 0 0 0 0 0 0 0 0 0 0 0 0 0 0 0 
0 0 0 0 0 0 0 0 0 0 0 0 0 0 0 0 0 0 0 0 0 0 0 0 
0 0 0 0 0 0 0 0 0 0 0 0 0 0 0 52 8 13 186 21 39 232 16 42 
234 10 35 234 9 35 234 9 35 234 9 35 234 9 35 234 9 35 234 9 35 234 9 35 
234 9 35 234 9 35 234 9 35 234 9 35 234 9 35 234 9 35 234 9 35 234 9 35 

0 0 0 0 0 0 0 0 0 0 0 0 0 0 0 0 0 0 0 0 0 0 0 0 
0 0 0 0 0 0 0 0 0 0 0 0 0 0 0 0 0 0 0 0 0 0 0 0 
0 0 0 0 0 0 0 0 0 0 0 0 0 0 0 0 0 0 0 0 0 0 0 0 
0 0 0 0 0 0 0 0 0 0 0 0 0 0 0 0 0 0 0 0 0 0 0 0 
0 0 0 0 0 0 0 0 0 0 0 0 0 0 0 0 0 0 0 0 0 0 0 0 
0 0 0 0 0 0 0 0 0 0 0 0 0 0 0 0 0 0 0 0 0 0 0 0 
0 0 0 0 0 0 0 0 0 0 0 0 0 0 0 0 0 0 0 0 0 0 0 0 
0 0 0 0 0 0 52 8 13 186 21 39 232 16 42 234 9 36 234 9 35 234 9 35 
234 9 35 234 9 35 234 9 35 234 9 35 234 9 35 234 9 35 234 9 35 234 9 35 
234 9 35 234 9 35 234 9 35 234 9 35 234 9 35 234 9 35 234 9 35 234 9 35 

0 0 0 0 0 0 0 0 0 0 0 0 0 0 0 0 0 0 0 0 0 0 0 0 
0 0 0 0 0 0 0 0 0 0 0 0 0 0 0 0 0 0 0 0 0 0 0 0 
0 0 0 0 0 0 0 0 0 0 0 0 0 0 0 0 0 0 0 0 0 0 0 0 
0 0 0 0 0 0 0 0 0 0 0 0 0 0 0 0 0 0 0 0 0 0 0 0 
0 0 0 0 0 0 0 0 0 0 0 0 0 0 0 0 0 0 0 0 0 0 0 0 
0 0 0 0 0 0 0 0 0 0 0 0 0 0 0 0 0 0 0 0 0 0 0 0 
0 0 0 0 0 0 0 0 0 0 0 0 0 0 0 0 0 0 0 0 0 48 10 10 
186 21 39 232 16 42 234 9 35 234 9 35 234 9 35 234 9 35 234 9 35 234 9 35 
234 9 35 234 9 35 234 9 35 234 9 35 234 9 35 234 9 35 234 9 35 234 9 35 
234 9 35 234 9 35 234 9 35 234 9 35 234 9 35 234 9 35 234 9 35 234 9 35 

0 0 0 0 0 0 0 0 0 0 0 0 0 0 0 0 0 0 0 0 0 0 0 0 
0 0 0 0 0 0 0 0 0 0 0 0 0 0 0 0 0 0 0 0 0 0 0 0 
0 0 0 0 0 0 0 0 0 0 0 0 0 0 0 0 0 0 0 0 0 0 0 0 
0 0 0 0 0 0 0 0 0 0 0 0 0 0 0 0 0 0 0 0 0 0 0 0 
0 0 0 0 0 0 0 0 0 0 0 0 0 0 0 0 0 0 0 0 0 0 0 0 
0 0 0 0 0 0 0 0 0 0 0 0 0 0 0 0 0 0 0 0 0 0 0 0 
0 0 0 0 0 0 0 0 0 0 0 0 28 6 5 174 24 42 231 19 46 234 10 36 
234 9 35 234 9 35 234 9 35 234 9 35 234 9 35 234 9 35 234 9 35 234 9 35 
234 9 35 234 9 35 234 9 35 234 9 35 234 9 35 234 9 35 234 9 35 234 9 35 
234 9 35 234 9 35 234 9 35 234 9 35 234 9 35 234 9 35 234 9 35 229 8 34 

0 0 0 0 0 0 0 0 0 0 0 0 0 0 0 0 0 0 0 0 0 0 0 0 
0 0 0 0 0 0 0 0 0 0 0 0 0 0 0 0 0 0 0 0 0 0 0 0 
0 0 0 0 0 0 0 0 0 0 0 0 0 0 0 0 0 0 0 0 0 0 0 0 
0 0 0 0 0 0 0 0 0 0 0 0 0 0 0 0 0 0 0 0 0 0 0 0 
0 0 0 0 0 0 0 0 0 0 0 0 0 0 0 0 0 0 0 0 0 0 0 0 
0 0 0 0 0 0 0 0 0 0 0 0 0 0 0 0 0 0 0 0 0 0 0 0 
0 0 0 0 0 0 83 21 18 220 34 57 238 16 43 234 9 35 234 9 35 234 9 35 
234 9 35 234 9 35 234 9 35 234 9 35 234 9 35 234 9 35 234 9 35 234 9 35 
234 9 35 234 9 35 234 9 35 234 9 35 234 9 35 234 9 35 234 9 35 234 9 35 
234 9 35 234 9 35 234 9 35 234 9 35 234 9 35 229 8 34 205 5 32 185 1 28 

0 0 0 0 0 0 0 0 0 0 0 0 0 0 0 0 0 0 0 0 0 0 0 0 
0 0 0 0 0 0 0 0 0 0 0 0 0 0 0 0 0 0 0 0 0 0 0 0 
0 0 0 0 0 0 0 0 0 0 0 0 0 0 0 0 0 0 0 0 0 0 0 0 
0 0 0 0 0 0 0 0 0 0 0 0 0 0 0 0 0 0 0 0 0 0 0 0 
0 0 0 0 0 0 0 0 0 0 0 0 0 0 0 0 0 0 0 0 0 0 0 0 
0 0 0 0 0 0 0 0 0 0 0 0 0 0 0 0 0 0 0 0 0 0 0 0 
0 0 0 52 8 13 246 32 60 246 29 58 245 28 57 243 25 54 243 24 51 241 21 49 
239 18 46 238 16 43 235 11 38 234 10 36 234 9 35 234 9 35 234 9 35 234 9 35 
234 9 35 234 9 35 234 9 35 234 9 35 234 9 35 234 9 35 234 9 35 234 9 35 
234 9 35 234 9 35 234 9 35 229 8 34 205 5 32 187 1 28 185 1 28 185 1 28 

0 0 0 0 0 0 0 0 0 0 0 0 0 0 0 0 0 0 0 0 0 0 0 0 
0 0 0 0 0 0 0 0 0 0 0 0 0 0 0 0 0 0 0 0 0 0 0 0 
0 0 0 0 0 0 0 0 0 0 0 0 0 0 0 0 0 0 0 0 0 0 0 0 
0 0 0 0 0 0 0 0 0 0 0 0 0 0 0 0 0 0 0 0 0 0 0 0 
0 0 0 0 0 0 0 0 0 0 0 0 0 0 0 0 0 0 0 0 0 0 0 0 
0 0 0 0 0 0 0 0 0 0 0 0 0 0 0 0 0 0 0 0 0 0 0 0 
9 1 2 230 34 59 246 29 58 246 29 58 246 29 58 246 29 58 246 29 58 246 29 58 
246 29 58 246 29 58 246 29 58 246 29 58 245 28 57 243 25 54 243 24 51 241 21 49 
238 16 43 238 16 43 235 11 38 234 10 35 234 9 35 234 9 35 234 9 35 234 9 35 
234 9 35 234 9 35 213 7 35 187 1 28 185 1 28 185 1 28 185 1 28 185 1 28 

0 0 0 0 0 0 0 0 0 0 0 0 0 0 0 0 0 0 0 0 0 0 0 0 
0 0 0 0 0 0 0 0 0 0 0 0 0 0 0 0 0 0 0 0 0 0 0 0 
0 0 0 0 0 0 0 0 0 0 0 0 0 0 0 0 0 0 0 0 0 0 0 0 
0 0 0 0 0 0 0 0 0 0 0 0 0 0 0 0 0 0 0 0 0 0 0 0 
0 0 0 0 0 0 0 0 0 0 0 0 0 0 0 0 0 0 0 0 0 0 0 0 
0 0 0 0 0 0 0 0 0 0 0 0 0 0 0 0 0 0 0 0 0 0 0 0 
191 26 46 246 29 58 246 29 58 246 29 58 246 29 58 246 29 58 246 29 58 246 29 58 
246 29 58 246 29 58 246 29 58 246 29 58 246 29 58 246 29 58 246 29 58 246 29 58 
246 29 58 246 29 58 246 29 58 246 29 58 245 28 57 243 24 51 241 21 49 239 18 46 
238 16 43 205 5 32 187 1 28 185 1 28 185 1 28 185 1 28 185 1 28 185 1 28 

0 0 0 0 0 0 0 0 0 0 0 0 0 0 0 0 0 0 0 0 0 0 0 0 
0 0 0 0 0 0 0 0 0 0 0 0 0 0 0 0 0 0 0 0 0 0 0 0 
0 0 0 0 0 0 0 0 0 0 0 0 0 0 0 0 0 0 0 0 0 0 0 0 
0 0 0 0 0 0 0 0 0 0 0 0 0 0 0 0 0 0 0 0 0 0 0 0 
0 0 0 0 0 0 0 0 0 0 0 0 0 0 0 0 0 0 0 0 0 0 0 0 
0 0 0 0 0 0 0 0 0 0 0 0 0 0 0 0 0 0 0 0 0 117 34 19 
246 30 59 246 29 58 246 29 58 246 29 58 246 29 58 246 29 58 246 29 58 246 29 58 
246 29 58 246 29 58 246 29 58 246 29 58 246 29 58 246 29 58 246 29 58 246 29 58 
246 29 58 246 29 58 246 29 58 246 29 58 246 29 58 246 29 58 246 29 58 246 29 58 
246 29 58 246 29 58 246 29 58 243 25 54 231 19 46 227 17 40 213 7 35 205 5 32 

0 0 0 0 0 0 0 0 0 0 0 0 0 0 0 0 0 0 0 0 0 0 0 0 
0 0 0 0 0 0 0 0 0 0 0 0 0 0 0 0 0 0 0 0 0 0 0 0 
0 0 0 0 0 0 0 0 0 0 0 0 0 0 0 0 0 0 0 0 0 0 0 0 
0 0 0 0 0 0 0 0 0 0 0 0 0 0 0 0 0 0 0 0 0 0 0 0 
0 0 0 0 0 0 0 0 0 0 0 0 0 0 0 0 0 0 0 0 0 0 0 0 
0 0 0 0 0 0 0 0 0 0 0 0 0 0 0 0 0 0 38 8 9 245 31 59 
246 29 58 246 29 58 246 29 58 246 29 58 246 29 58 246 29 58 246 29 58 246 29 58 
246 29 58 246 29 58 246 29 58 246 29 58 246 29 58 246 29 58 246 29 58 246 29 58 
246 29 58 246 29 58 246 29 58 246 29 58 246 29 58 246 29 58 246 29 58 246 29 58 
246 29 58 246 29 58 246 29 58 246 29 58 246 29 58 246 29 58 246 29 58 246 29 58 

0 0 0 0 0 0 0 0 0 0 0 0 0 0 0 0 0 0 0 0 0 0 0 0 
0 0 0 0 0 0 0 0 0 0 0 0 0 0 0 0 0 0 0 0 0 0 0 0 
0 0 0 0 0 0 0 0 0 0 0 0 0 0 0 0 0 0 0 0 0 0 0 0 
0 0 0 0 0 0 0 0 0 0 0 0 0 0 0 0 0 0 0 0 0 0 0 0 
0 0 0 0 0 0 0 0 0 0 0 0 0 0 0 0 0 0 0 0 0 0 0 0 
0 0 0 0 0 0 0 0 0 0 0 0 0 0 0 1 1 0 230 34 59 246 29 58 
246 29 58 246 29 58 246 29 58 246 29 58 246 29 58 246 29 58 246 29 58 246 29 58 
246 29 58 246 29 58 246 29 58 246 29 58 246 29 58 246 29 58 246 29 58 246 29 58 
246 29 58 246 29 58 246 29 58 246 29 58 246 29 58 246 29 58 246 29 58 246 29 58 
246 29 58 246 29 58 246 29 58 246 29 58 246 29 58 246 29 58 246 29 58 246 29 58 

0 0 0 0 0 0 0 0 0 0 0 0 0 0 0 0 0 0 0 0 0 0 0 0 
0 0 0 0 0 0 0 0 0 0 0 0 0 0 0 0 0 0 0 0 0 0 0 0 
0 0 0 0 0 0 0 0 0 0 0 0 0 0 0 0 0 0 0 0 0 0 0 0 
0 0 0 0 0 0 0 0 0 0 0 0 0 0 0 0 0 0 0 0 0 0 0 0 
0 0 0 0 0 0 0 0 0 0 0 0 0 0 0 0 0 0 0 0 0 0 0 0 
0 0 0 0 0 0 0 0 0 0 0 0 0 0 0 174 24 42 246 29 58 246 29 58 
246 29 58 246 29 58 246 29 58 246 29 58 246 29 58 246 29 58 246 29 58 246 29 58 
246 29 58 246 29 58 246 29 58 246 29 58 246 29 58 246 29 58 246 29 58 246 29 58 
246 29 58 246 29 58 246 29 58 246 29 58 246 29 58 246 29 58 246 29 58 246 29 58 
246 29 58 246 29 58 246 29 58 246 29 58 246 29 58 246 29 58 246 36 63 247 45 68 

0 0 0 0 0 0 0 0 0 0 0 0 0 0 0 0 0 0 0 0 0 0 0 0 
0 0 0 0 0 0 0 0 0 0 0 0 0 0 0 0 0 0 0 0 0 0 0 0 
0 0 0 0 0 0 0 0 0 0 0 0 0 0 0 0 0 0 0 0 0 0 0 0 
0 0 0 0 0 0 0 0 0 0 0 0 0 0 0 0 0 0 0 0 0 0 0 0 
0 0 0 0 0 0 0 0 0 0 0 0 0 0 0 0 0 0 0 0 0 0 0 0 
0 0 0 0 0 0 0 0 0 0 0 0 83 21 18 246 30 59 246 29 58 246 29 58 
246 29 58 246 29 58 246 29 58 246 29 58 246 29 58 246 29 58 246 29 58 246 29 58 
246 29 58 246 29 58 246 29 58 246 29 58 246 29 58 246 29 58 246 29 58 246 29 58 
246 29 58 246 29 58 246 29 58 246 29 58 246 29 58 246 29 58 246 29 58 246 29 58 
246 29 58 246 29 58 246 32 60 247 45 68 248 55 75 249 61 80 249 67 83 249 67 83 

0 0 0 0 0 0 0 0 0 0 0 0 0 0 0 0 0 0 0 0 0 0 0 0 
0 0 0 0 0 0 0 0 0 0 0 0 0 0 0 0 0 0 0 0 0 0 0 0 
0 0 0 0 0 0 0 0 0 0 0 0 0 0 0 0 0 0 0 0 0 0 0 0 
0 0 0 0 0 0 0 0 0 0 0 0 0 0 0 0 0 0 0 0 0 0 0 0 
0 0 0 0 0 0 0 0 0 0 0 0 0 0 0 0 0 0 0 0 0 0 0 0 
0 0 0 0 0 0 0 0 0 14 3 3 240 30 58 246 29 58 246 29 58 246 29 58 
246 29 58 246 29 58 246 29 58 246 29 58 246 29 58 246 29 58 246 29 58 246 29 58 
246 29 58 246 29 58 246 29 58 246 29 58 246 29 58 246 29 58 246 29 58 246 29 58 
246 29 58 246 29 58 246 29 58 246 29 58 246 29 58 246 29 58 247 31 59 247 40 65 
248 50 72 248 60 78 249 67 83 249 67 83 249 67 83 249 67 83 249 67 83 249 67 83 

0 0 0 0 0 0 0 0 0 0 0 0 0 0 0 0 0 0 0 0 0 0 0 0 
0 0 0 0 0 0 0 0 0 0 0 0 0 0 0 0 0 0 0 0 0 0 0 0 
0 0 0 0 0 0 0 0 0 0 0 0 0 0 0 0 0 0 0 0 0 0 0 0 
0 0 0 0 0 0 0 0 0 0 0 0 0 0 0 0 0 0 0 0 0 0 0 0 
0 0 0 0 0 0 0 0 0 0 0 0 0 0 0 0 0 0 0 0 0 0 0 0 
0 0 0 0 0 0 0 0 0 191 26 46 246 29 58 246 29 58 246 29 58 246 29 58 
246 29 58 246 29 58 246 29 58 246 29 58 246 29 58 246 29 58 246 29 58 246 29 58 
246 29 58 246 29 58 246 29 58 246 29 58 246 29 58 246 29 58 246 29 58 246 29 58 
246 29 58 246 29 58 247 32 60 247 40 66 248 50 72 248 60 78 249 66 82 249 67 83 
249 67 83 249 67 83 249 67 83 249 67 83 249 67 83 249 67 83 249 67 83 249 67 83 

0 0 0 0 0 0 0 0 0 0 0 0 0 0 0 0 0 0 0 0 0 0 0 0 
0 0 0 0 0 0 0 0 0 0 0 0 0 0 0 0 0 0 0 0 0 0 0 0 
0 0 0 0 0 0 0 0 0 0 0 0 0 0 0 0 0 0 0 0 0 0 0 0 
0 0 0 0 0 0 0 0 0 0 0 0 0 0 0 0 0 0 0 0 0 0 0 0 
0 0 0 0 0 0 0 0 0 0 0 0 0 0 0 0 0 0 0 0 0 0 0 0 
0 0 0 0 0 0 117 34 19 246 29 58 246 29 58 246 29 58 246 29 58 246 29 58 
246 29 58 246 29 58 246 29 58 246 29 58 246 29 58 246 29 58 246 29 58 246 29 58 
246 29 58 246 29 58 246 29 58 246 29 58 246 29 58 246 29 58 246 32 60 247 40 66 
248 50 72 248 60 78 249 66 82 249 67 83 249 67 83 249 67 83 249 67 83 249 67 83 
249 67 83 249 67 83 249 67 83 249 67 83 249 67 83 249 67 83 249 67 83 249 67 83 

0 0 0 0 0 0 0 0 0 0 0 0 0 0 0 0 0 0 0 0 0 0 0 0 
0 0 0 0 0 0 0 0 0 0 0 0 0 0 0 0 0 0 0 0 0 0 0 0 
0 0 0 0 0 0 0 0 0 0 0 0 0 0 0 0 0 0 0 0 0 0 0 0 
0 0 0 0 0 0 0 0 0 0 0 0 0 0 0 0 0 0 0 0 0 0 0 0 
0 0 0 0 0 0 0 0 0 0 0 0 0 0 0 0 0 0 0 0 0 0 0 0 
0 0 0 38 8 9 245 31 59 246 29 58 246 29 58 246 29 58 246 29 58 246 29 58 
246 29 58 246 29 58 246 29 58 246 29 58 246 29 58 246 29 58 246 29 58 246 29 58 
246 29 58 246 29 58 247 32 60 247 40 66 247 51 72 249 61 80 249 67 83 249 67 83 
249 67 83 249 67 83 249 67 83 249 67 83 249 67 83 249 67 83 249 67 83 249 67 83 
249 67 83 249 67 83 249 67 83 249 67 83 249 67 83 249 67 83 249 67 83 249 67 83 

0 0 0 0 0 0 0 0 0 0 0 0 0 0 0 0 0 0 0 0 0 0 0 0 
0 0 0 0 0 0 0 0 0 0 0 0 0 0 0 0 0 0 0 0 0 0 0 0 
0 0 0 0 0 0 0 0 0 0 0 0 0 0 0 0 0 0 0 0 0 0 0 0 
0 0 0 0 0 0 0 0 0 0 0 0 0 0 0 0 0 0 0 0 0 0 0 0 
0 0 0 0 0 0 0 0 0 0 0 0 0 0 0 0 0 0 0 0 0 0 0 0 
1 1 0 230 34 59 246 29 58 246 29 58 246 29 58 246 29 58 246 29 58 246 29 58 
246 29 58 246 29 58 246 29 58 246 29 58 246 29 58 246 29 58 247 31 59 247 40 65 
248 50 72 248 60 78 249 66 82 249 67 83 249 67 83 249 67 83 249 67 83 249 67 83 
249 67 83 249 67 83 249 67 83 249 67 83 249 67 83 249 67 83 249 67 83 249 67 83 
249 67 83 249 67 83 249 67 83 249 67 83 249 67 83 249 67 83 249 67 83 249 67 83 

0 0 0 0 0 0 0 0 0 0 0 0 0 0 0 0 0 0 0 0 0 0 0 0 
0 0 0 0 0 0 0 0 0 0 0 0 0 0 0 0 0 0 0 0 0 0 0 0 
0 0 0 0 0 0 0 0 0 0 0 0 0 0 0 0 0 0 0 0 0 0 0 0 
0 0 0 0 0 0 0 0 0 0 0 0 0 0 0 0 0 0 0 0 0 0 0 0 
0 0 0 0 0 0 0 0 0 0 0 0 0 0 0 0 0 0 0 0 0 0 0 0 
174 24 42 246 29 58 246 29 58 246 29 58 246 29 58 246 29 58 246 29 58 246 29 58 
246 29 58 246 29 58 247 31 59 247 40 65 248 50 72 248 60 78 249 66 83 249 67 83 
249 67 83 249 67 83 249 67 83 249 67 83 249 67 83 249 67 83 249 67 83 249 67 83 
249 67 83 249 67 83 249 67 83 249 67 83 249 67 83 249 67 83 249 67 83 249 67 83 
249 67 83 249 67 83 249 67 83 249 67 83 249 67 83 249 67 83 249 67 83 249 67 83 

0 0 0 0 0 0 0 0 0 0 0 0 0 0 0 0 0 0 0 0 0 0 0 0 
0 0 0 0 0 0 0 0 0 0 0 0 0 0 0 0 0 0 0 0 0 0 0 0 
0 0 0 0 0 0 0 0 0 0 0 0 0 0 0 0 0 0 0 0 0 0 0 0 
0 0 0 0 0 0 0 0 0 0 0 0 0 0 0 0 0 0 0 0 0 0 0 0 
0 0 0 0 0 0 0 0 0 0 0 0 0 0 0 0 0 0 0 0 0 67 12 18 
246 30 59 246 29 58 246 29 58 246 29 58 246 29 58 246 29 58 246 31 59 247 40 65 
248 50 72 248 60 78 249 66 83 249 67 83 249 67 83 249 67 83 249 67 83 249 67 83 
249 67 83 249 67 83 249 67 83 249 67 83 249 67 83 249 67 83 249 67 83 249 67 83 
249 67 83 249 67 83 249 67 83 249 67 83 249 67 83 249 67 83 249 67 83 249 67 83 
249 67 83 249 67 83 249 67 83 249 67 83 249 67 83 249 67 83 249 67 83 249 67 83 

0 0 0 0 0 0 0 0 0 0 0 0 0 0 0 0 0 0 0 0 0 0 0 0 
0 0 0 0 0 0 0 0 0 0 0 0 0 0 0 0 0 0 0 0 0 0 0 0 
0 0 0 0 0 0 0 0 0 0 0 0 0 0 0 0 0 0 0 0 0 0 0 0 
0 0 0 0 0 0 0 0 0 0 0 0 0 0 0 0 0 0 0 0 0 0 0 0 
0 0 0 0 0 0 0 0 0 0 0 0 0 0 0 0 0 0 7 2 2 230 34 59 
246 29 58 246 29 58 246 30 59 247 40 65 248 50 72 248 55 75 249 66 83 249 67 83 
249 67 83 249 67 83 249 67 83 249 67 83 249 67 83 249 67 83 249 67 83 249 67 83 
249 67 83 249 67 83 249 67 83 249 67 83 249 67 83 249 67 83 249 67 83 249 67 83 
249 67 83 249 67 83 249 67 83 249 67 83 249 67 83 249 67 83 249 67 83 249 67 83 
249 67 83 249 67 83 249 67 83 249 67 83 249 67 83 249 67 83 249 67 83 249 67 83 

